!!!SOCIAL_FUNCTION:	songs of war
!!!PDT:	1918

Specific Region: Dakotas, Minnesota, Montana, Nebraska
!!!REG: Dakotas and Montana
!!!LING_GROUP: Siouan
!!!LANG: Tone
!!!OTL@ENG: See My Desire
!!!ONM: No. 141
**kern
*Imale
*clefF4
*k[b-e-]
*M3/4
*>[A,A]
*>norep[A]
*>A
=1!|:
*MM48
8.g
16g
8.g
16g
8.f
16f
=2
8.d
16d
8d
8B-
8..B-
32e-
=3||
*M2/4
8.d
16d
4d
=4
8.f
16d
8.d
16d
=5
4c
8.B-
16G
=6
4G
8.B-
16c
=7
8.B-
16B-
8B-
16G
16G
=8
4B-
4B-
=9||
*M3/4
8.G
16G
8.G
16G
4G
==:|!
*-
!!!CNT: Native American -- Sioux
!!!MRD: 1911/07//-1914///
!!!OCL: Frances Densmore
!!!YOR1: Teton Sioux Music, Bulletin 61,
!!!YOR2: Bureau of American Ethnology, Smithsonian Institution
!!!PPR: Government Printing Office
!!!PPP: Washington, D.C.
!!!PDT: 1918///
!!!ENC: Craig Stuart Sapp
!!!END: 2002/03/25/
!!!EEV: 2002/03/31/
!!!AGN: War Song/Song of a Typical War Expedition
!!!MPN@@SIO: Waha'changka-ya'pi
!!!MPN@ENG: Used-as-a-Shield
!!!TXO: Teton Sioux
!!!MLC: Standing Rock Reservation, South Dakota, United States of America
!!!ARL: 45.9/-100.7#
!!!catalog: Catalogue No. 616
!!!PPG: 356
!!!EFL: 145/245
!!!VTS: 555537829
